icons/twitter.svg

<svg width="24" height="24" viewBox="0 0 24 24" fill="none" xmlns="http://www.w3.org/2000/svg">
<path fill-rule="evenodd" clip-rule="evenodd" d="M14.849 5.65787C14.3922 5.65768 13.941 5.75892 13.528 5.95429C13.115 6.14965 12.7506 6.43427 12.461 6.78759C12.1714 7.14091 11.9639 7.55412 11.8534 7.99739C11.7429 8.44067 11.7321 8.90295 11.822 9.35087C11.8529 9.50607 11.8466 9.66639 11.8035 9.81866C11.7604 9.97094 11.6818 10.1108 11.5741 10.2268C11.4665 10.3428 11.3328 10.4315 11.1841 10.4858C11.0355 10.54 10.8761 10.5582 10.719 10.5389C8.56873 10.2747 6.54172 9.39082 4.885 7.99487C4.916 8.59687 5.125 9.23687 5.578 9.90687L6.257 10.9109L5.142 11.3859L4.927 11.4779C5.087 11.6609 5.279 11.8479 5.494 12.0329C5.78141 12.2789 6.08547 12.5047 6.404 12.7089L6.415 12.7159H6.416L7.964 13.6549L6.344 14.4649C6.264 14.5049 6.184 14.5409 6.104 14.5729C6.45234 14.8623 6.83609 15.1063 7.246 15.2989L8.636 15.9559L7.472 16.9599C6.837 17.5079 6.198 17.9169 5.369 18.1329C6.64044 18.8101 8.05944 19.1629 9.5 19.1599C14.306 19.1599 18.176 15.3249 18.176 10.6259V10.1059L18.601 9.80687C19.265 9.34087 19.734 8.71087 20.07 7.98987H17.91L17.638 7.41987C17.3875 6.89254 16.9926 6.44707 16.4991 6.13518C16.0056 5.82329 15.4338 5.65778 14.85 5.65787H14.849ZM3.569 12.9579C3.47463 13.0659 3.40463 13.193 3.36373 13.3306C3.32284 13.4681 3.31202 13.6128 3.332 13.7549C3.445 14.5559 3.924 15.2459 4.454 15.7729C4.598 15.9159 4.752 16.0529 4.914 16.1839L4.839 16.2039C4.358 16.3239 3.709 16.3489 2.628 16.2439C2.42386 16.2238 2.2185 16.2671 2.03975 16.3677C1.86101 16.4683 1.71754 16.6215 1.62879 16.8064C1.54004 16.9913 1.5103 17.1991 1.54361 17.4015C1.57692 17.6039 1.67166 17.7911 1.815 17.9379C2.81577 18.9608 4.01129 19.7729 5.33102 20.3263C6.65075 20.8797 8.06795 21.1631 9.499 21.1599C15.212 21.1599 19.898 16.7239 20.163 11.1259C21.453 10.0429 22.098 8.57587 22.446 7.24287C22.4847 7.09492 22.4889 6.94007 22.4584 6.79022C22.4279 6.64038 22.3634 6.49953 22.2699 6.37851C22.1764 6.25749 22.0564 6.15953 21.9191 6.09216C21.7818 6.02478 21.6309 5.98979 21.478 5.98987H19.125C18.5494 5.09619 17.7083 4.40531 16.7199 4.0143C15.7314 3.6233 14.6453 3.55182 13.6141 3.80991C12.583 4.06801 11.6586 4.64271 10.9709 5.45325C10.2832 6.26379 9.8667 7.26943 9.78 8.32887C7.93666 7.84902 6.28733 6.80967 5.059 5.35387C4.95022 5.22525 4.81071 5.1262 4.65342 5.0659C4.49613 5.0056 4.32615 4.98602 4.15927 5.00896C3.99239 5.0319 3.83401 5.09663 3.69882 5.19713C3.56364 5.29764 3.45604 5.43067 3.386 5.58387C2.78 6.90587 2.664 8.42987 3.34 9.97987L3.106 10.0799C2.88207 10.1753 2.70064 10.3491 2.5957 10.5687C2.49077 10.7884 2.46954 11.0387 2.536 11.2729C2.722 11.9249 3.14 12.5009 3.568 12.9579H3.569Z" fill="black"/>
</svg>

<svg
  width="24"
  height="24"
  viewBox="0 0 24 24"
  xmlns="http://www.w3.org/2000/svg"
>
  <path
    fill-rule="evenodd"
    clip-rule="evenodd"
    d="M14.849 5.658a3.086 3.086 0 0 0-3.027 3.693 1 1 0 0 1-1.103 1.188 11.168 11.168 0 0 1-5.834-2.544c.031.602.24 1.242.693 1.912l.679 1.004-1.115.475-.215.092c.16.183.352.37.567.555.287.246.591.472.91.676l.011.007h.001l1.548.939-1.62.81c-.08.04-.16.076-.24.108.348.29.732.533 1.142.726l1.39.657-1.164 1.004c-.635.548-1.274.957-2.103 1.173A8.749 8.749 0 0 0 9.5 19.16c4.806 0 8.676-3.835 8.676-8.534v-.52l.425-.3c.664-.465 1.133-1.095 1.469-1.816h-2.16l-.272-.57a3.086 3.086 0 0 0-2.788-1.762h-.001zm-11.28 7.3a.999.999 0 0 0-.237.797c.113.8.592 1.49 1.122 2.018.144.143.298.28.46.41l-.075.02c-.481.12-1.13.146-2.211.04a1 1 0 0 0-.813 1.695 10.717 10.717 0 0 0 7.684 3.222c5.713 0 10.399-4.436 10.664-10.034 1.29-1.083 1.935-2.55 2.283-3.883a1 1 0 0 0-.968-1.253h-2.353A5.086 5.086 0 0 0 9.78 8.329a9.214 9.214 0 0 1-4.721-2.975 1 1 0 0 0-1.673.23C2.78 6.906 2.664 8.43 3.34 9.98l-.234.1a1 1 0 0 0-.57 1.193c.186.652.604 1.228 1.032 1.685h.001z"
  />
</svg>
